img/socials/twitter.svg

<svg width="17" height="14" viewBox="0 0 17 14" fill="none" xmlns="http://www.w3.org/2000/svg">
<path fill-rule="evenodd" clip-rule="evenodd" d="M8.49085 3.81783L8.52653 4.40606L7.93197 4.33403C5.76778 4.05792 3.87709 3.12154 2.27178 1.54891L1.48697 0.76859L1.28482 1.34482C0.856735 2.62934 1.13023 3.98589 2.02207 4.89826C2.49771 5.40247 2.39069 5.4745 1.5702 5.17437C1.28482 5.07834 1.0351 5.00631 1.01132 5.04232C0.928081 5.12636 1.21347 6.2188 1.4394 6.65097C1.74857 7.25122 2.3788 7.83945 3.06849 8.1876L3.65115 8.46371L2.96147 8.47571C2.29556 8.47571 2.27178 8.48772 2.34313 8.73982C2.58095 9.52014 3.52035 10.3485 4.56677 10.7086L5.30402 10.9607L4.6619 11.3449C3.71061 11.8971 2.59284 12.2092 1.47507 12.2332C0.939973 12.2452 0.5 12.2933 0.5 12.3293C0.5 12.4493 1.95072 13.1216 2.79499 13.3857C5.32781 14.166 8.33627 13.8299 10.5956 12.4973C12.2009 11.549 13.8062 9.66419 14.5553 7.83945C14.9596 6.86706 15.3639 5.09034 15.3639 4.238C15.3639 3.68577 15.3996 3.61374 16.0655 2.95347C16.4579 2.56932 16.8265 2.14915 16.8979 2.0291C17.0168 1.80101 17.0049 1.80101 16.3985 2.00509C15.3877 2.36524 15.245 2.31722 15.7445 1.777C16.1131 1.39284 16.5531 0.69656 16.5531 0.492478C16.5531 0.456463 16.3747 0.516487 16.1725 0.624531C15.9585 0.74458 15.4828 0.924653 15.1261 1.0327L14.484 1.23678L13.9013 0.840619C13.5803 0.624531 13.1284 0.384434 12.8906 0.312405C12.2841 0.144337 11.3566 0.168346 10.8096 0.360424C9.32323 0.900643 8.38383 2.29321 8.49085 3.81783Z" fill="white"/>
</svg>

<svg width="17" height="14" fill="none" xmlns="http://www.w3.org/2000/svg"><path fill-rule="evenodd" clip-rule="evenodd" d="m8.49 3.818.037.588-.595-.072c-2.164-.276-4.055-1.212-5.66-2.785l-.785-.78-.202.576c-.428 1.284-.155 2.64.737 3.553.476.504.369.577-.452.276-.285-.096-.535-.168-.559-.132-.083.084.202 1.177.428 1.609.31.6.94 1.188 1.63 1.537l.582.276-.69.012c-.665 0-.69.012-.618.264.238.78 1.177 1.608 2.224 1.969l.737.252-.642.384a6.695 6.695 0 0 1-3.187.888c-.535.012-.975.06-.975.096 0 .12 1.45.793 2.295 1.057 2.533.78 5.541.444 7.8-.889 1.606-.948 3.211-2.833 3.96-4.658.405-.972.809-2.749.809-3.601 0-.552.036-.624.701-1.285.393-.384.761-.804.833-.924.119-.228.107-.228-.5-.024-1.01.36-1.153.312-.653-.228.368-.384.808-1.08.808-1.285 0-.036-.178.024-.38.133-.214.12-.69.3-1.047.408l-.642.204-.583-.396c-.32-.216-.773-.457-1.01-.529-.607-.168-1.534-.144-2.081.048C9.323.9 8.384 2.293 8.49 3.818Z" fill="#fff"/></svg>
